X:1
T: Lord Anson Forever
N:
C:
S:
A:
O:
R:
M:4/4
K:G
I:speed 180
%W:  A
% voice 1 (1 lines, 37 notes)
K:G
M:4/4
L:1/16
G4 G4 G4 A4 |B2 A2 B2 c2 B4 c4 |d4 d4 d4 e2 f2 |g2 f2 g2 a2 g4 d4 |e4 d4 g2 z4 d2 |e4 d4 g2 z4 d2 |c4 B4 A4 G4 |A8 D8 |
%W:
% voice 1 (1 lines, 37 notes)
G4 G4 G4 A4 |B2 A2 B2 c2 B4 c4 |d4 d4 d4 e2 f2 |g2 f2 g2 a2 g4 d4 |e4 d4 g2 z4 d2 |e4 d4 g2 z4 d2 |c4 B4 A4 F4 |G12 D4 |
%W:  B
% voice 1 (1 lines, 30 notes)
D4 D4 D4 E4 |F2 E2 F2 G2 F4 G4 |A4 e4 d4 c4 |B12 g4 |G4 B4 A4 e4 |G4 B4 A4 e4 |d4 c4 B4 A4 |G12 D4 |
%W:
% voice 1 (1 lines, 29 notes)
D4 D4 D4 E4 |F2 E2 F2 G2 F4 G4 |A4 e4 d4 c4 |B12 g4 |G4 B4 A4 e4 |G4 B4 A4 e4 |d4 c4 B4 A4 |G16 ||
